image/values/icon-2.svg

<svg width="48" height="48" viewBox="0 0 48 48" fill="none" xmlns="http://www.w3.org/2000/svg">
<path d="M13.7578 37.8002C12.9378 37.8002 12.2578 37.1202 12.2578 36.3002V32.1602C12.2578 31.3402 12.9378 30.6602 13.7578 30.6602C14.5778 30.6602 15.2578 31.3402 15.2578 32.1602V36.3002C15.2578 37.1402 14.5778 37.8002 13.7578 37.8002Z" fill="#C63031"/>
<path d="M24 37.8C23.18 37.8 22.5 37.12 22.5 36.3V28C22.5 27.18 23.18 26.5 24 26.5C24.82 26.5 25.5 27.18 25.5 28V36.3C25.5 37.14 24.82 37.8 24 37.8Z" fill="#C63031"/>
<path d="M34.2422 37.7994C33.4222 37.7994 32.7422 37.1194 32.7422 36.2994V23.8594C32.7422 23.0394 33.4222 22.3594 34.2422 22.3594C35.0622 22.3594 35.7422 23.0394 35.7422 23.8594V36.2994C35.7422 37.1394 35.0822 37.7994 34.2422 37.7994Z" fill="#C63031"/>
<path d="M13.7631 26.3608C13.0831 26.3608 12.4831 25.9008 12.3031 25.2208C12.1031 24.4208 12.5831 23.6008 13.4031 23.4008C20.7631 21.5608 27.2431 17.5408 32.1831 11.8008L33.1031 10.7208C33.6431 10.1008 34.5831 10.0208 35.2231 10.5608C35.8431 11.1008 35.9231 12.0408 35.3831 12.6808L34.4631 13.7608C29.1231 20.0008 22.0831 24.3408 14.1231 26.3208C14.0031 26.3608 13.8831 26.3608 13.7631 26.3608Z" fill="#C63031"/>
<path d="M34.2428 19.0392C33.4228 19.0392 32.7428 18.3592 32.7428 17.5392V13.1992H28.3828C27.5628 13.1992 26.8828 12.5192 26.8828 11.6992C26.8828 10.8792 27.5628 10.1992 28.3828 10.1992H34.2428C35.0628 10.1992 35.7428 10.8792 35.7428 11.6992V17.5592C35.7428 18.3792 35.0828 19.0392 34.2428 19.0392Z" fill="#C63031"/>
<path d="M30 45.5H18C7.14 45.5 2.5 40.86 2.5 30V18C2.5 7.14 7.14 2.5 18 2.5H30C40.86 2.5 45.5 7.14 45.5 18V30C45.5 40.86 40.86 45.5 30 45.5ZM18 5.5C8.78 5.5 5.5 8.78 5.5 18V30C5.5 39.22 8.78 42.5 18 42.5H30C39.22 42.5 42.5 39.22 42.5 30V18C42.5 8.78 39.22 5.5 30 5.5H18Z" fill="#2E2E2E"/>
</svg>

<svg xmlns="http://www.w3.org/2000/svg" width="48" height="48" fill="none"><path fill="#C63031" d="M13.758 37.8c-.82 0-1.5-.68-1.5-1.5v-4.14c0-.82.68-1.5 1.5-1.5s1.5.68 1.5 1.5v4.14c0 .84-.68 1.5-1.5 1.5ZM24 37.8c-.82 0-1.5-.68-1.5-1.5V28c0-.82.68-1.5 1.5-1.5s1.5.68 1.5 1.5v8.3c0 .84-.68 1.5-1.5 1.5ZM34.242 37.8c-.82 0-1.5-.68-1.5-1.5V23.86c0-.82.68-1.5 1.5-1.5s1.5.68 1.5 1.5V36.3c0 .84-.66 1.5-1.5 1.5ZM13.763 26.36c-.68 0-1.28-.46-1.46-1.14-.2-.8.28-1.62 1.1-1.82 7.36-1.84 13.84-5.86 18.78-11.6l.92-1.08c.54-.62 1.48-.7 2.12-.16.62.54.7 1.48.16 2.12l-.92 1.08a39.027 39.027 0 0 1-20.34 12.56c-.12.04-.24.04-.36.04Z"/><path fill="#C63031" d="M34.243 19.04c-.82 0-1.5-.68-1.5-1.5V13.2h-4.36c-.82 0-1.5-.68-1.5-1.5s.68-1.5 1.5-1.5h5.86c.82 0 1.5.68 1.5 1.5v5.86c0 .82-.66 1.48-1.5 1.48Z"/><path fill="#2E2E2E" d="M30 45.5H18C7.14 45.5 2.5 40.86 2.5 30V18C2.5 7.14 7.14 2.5 18 2.5h12c10.86 0 15.5 4.64 15.5 15.5v12c0 10.86-4.64 15.5-15.5 15.5Zm-12-40C8.78 5.5 5.5 8.78 5.5 18v12c0 9.22 3.28 12.5 12.5 12.5h12c9.22 0 12.5-3.28 12.5-12.5V18c0-9.22-3.28-12.5-12.5-12.5H18Z"/></svg>
